X: 22306
T: La Russe
R: polka
M: 2/4
K: Gmajor
G|:GB/B/ Bd/d/|dg gf/g/|ag ec|ed d/c/B/A/|
GB/B/ Bd/d/|dg gf/g/|ed dF|1 AG G2:|2 AG G>B||
K: Dmaj
|:Ad d/d/c/B/|Aa a/a/f/f/|gf g/g/e/e/|f/f/e/c/ d/d/c/B/|
Ad dc/B/|Aa af|gf ge|1 d2 dc/B/:|2 d2 F2||

